X: 38038
T: Spider's Web, The
R: jig
M: 6/8
K: Gmajor
GBd {b}g2 d|e{b}gd {c}BG{B}G|Bdd efg|{c'}a2 g {a}fed|
GBd {b}g2 d|e{b}gd {c}BG{B}G|Bdd cAF|1 DEF GDD:|2 DEF ~G2 z||
{c'}bag {b}gfg|{c'}bag {b}gfe|def gab|{c'}a2 g {a}fed|
{c'}bag {c'}bag|{b}gfe dBG|1 Bdd cAF|DEF ~G2 z:|2 B z d cAF|DEF GDD||

